assets/icons/solid/file-export.svg

<svg xmlns="http://www.w3.org/2000/svg" viewBox="0 0 576 512"><!--! Font Awesome Free 6.7.2 by @fontawesome - https://fontawesome.com License - https://fontawesome.com/license/free (Icons: CC BY 4.0, Fonts: SIL OFL 1.1, Code: MIT License) Copyright 2024 Fonticons, Inc. --><path d="M0 64C0 28.7 28.7 0 64 0L224 0l0 128c0 17.7 14.3 32 32 32l128 0 0 128-168 0c-13.3 0-24 10.7-24 24s10.7 24 24 24l168 0 0 112c0 35.3-28.7 64-64 64L64 512c-35.3 0-64-28.7-64-64L0 64zM384 336l0-48 110.1 0-39-39c-9.4-9.4-9.4-24.6 0-33.9s24.6-9.4 33.9 0l80 80c9.4 9.4 9.4 24.6 0 33.9l-80 80c-9.4 9.4-24.6 9.4-33.9 0s-9.4-24.6 0-33.9l39-39L384 336zm0-208l-128 0L256 0 384 128z"/></svg>

<svg xmlns="http://www.w3.org/2000/svg" viewBox="0 0 576 512"><!--! Font Awesome Pro 6.5.1 by @fontawesome - https://fontawesome.com License - https://fontawesome.com/license (Commercial License) Copyright 2023 Fonticons, Inc. --><path d="M0 64C0 28.7 28.7 0 64 0H224V128c0 17.7 14.3 32 32 32H384V288H216c-13.3 0-24 10.7-24 24s10.7 24 24 24H384V448c0 35.3-28.7 64-64 64H64c-35.3 0-64-28.7-64-64V64zM384 336V288H494.1l-39-39c-9.4-9.4-9.4-24.6 0-33.9s24.6-9.4 33.9 0l80 80c9.4 9.4 9.4 24.6 0 33.9l-80 80c-9.4 9.4-24.6 9.4-33.9 0s-9.4-24.6 0-33.9l39-39H384zm0-208H256V0L384 128z"/></svg>
